!!!!SEGMENT: pl-kk--kk-i-346--002_anonim--tollite-portas.krn
!!!cenid: 17xx:2160
!!!COM: Anonim
!!!COM-rismid: pe30004985
!!!CDT:
!!!CNT:
!!!OTL: Tollite portas
!!!PDT:
!!!AGN: Sacred
!!!SMS-siglum: PL-Kk
!!!SMS-shelfmark: Kk.I.346
!!!SMS-shelfwork: 002 W
!!!SMS-variant:
!!!SMS-altvar:
!!!NIFC-rismid: 1001145575
!!!URL-scan: http://repozytorium.nifc.pl/skany/pl-kk-nut--i-346
!!!ONB-nifc: UWAGA: utwory w zbiorze: 1. Rorate caeli, 2. Tollite portas, 3. Alleluja, 4. Ave Maria
**kern	**text	**kern	**text	**kern	**text	**kern	**text
*part4	*part4	*part3	*part3	*part2	*part2	*part1	*part1
*staff4	*staff4	*staff3	*staff3	*staff2	*staff2	*staff1	*staff1
*Iempty	*	*Itenor	*	*Itenor	*	*Ialto	*
*I"Baſso	*	*I"Tenore 2do	*	*I"Tenore 1mo	*	*I"Alto.	*
*I'B.	*	*I'T II	*	*I'T I	*	*I'A.	*
*clefF4	*	*clefC4	*	*clefC4	*	*clefC3	*
*k[b-]	*	*k[b-]	*	*k[b-]	*	*k[b-]	*
*F:	*	*F:	*	*F:	*	*F:	*
*M2/1	*	*M2/1	*	*M2/1	*	*M2/1	*
*met(C|)	*	*met(C|)	*	*met(C|)	*	*met(C|)	*
=1	=1	=1	=1	=1	=1	=1	=1
*	*	*	*	*	*	*2\right	*
!LO:TX:t=P:problem:kreska pseudotaktowa	!	!	!	!	!	!	!
0r	.	2.F/	Tol-	4F/	Tol-	2f\	Tol-
.	.	.	.	4G/	.	.	.
.	.	.	.	4A/	.	4f\	-li-
!	!	!LO:TX:t=P:problem:kreska pseudotaktowa	!	!LO:TX:t=P:problem:kreska pseudotaktowa	!	!LO:TX:t=P:problem:kreska pseudotaktowa	!
.	.	4G/	.	4B-X\	.	4f\	-te
.	.	4A/	.	4c\	.	1f\	por-
.	.	4G/	.	4B-\	.	.	.
.	.	4A/	.	4c\	.	.	.
!	!	!LO:TX:t=P:problem:kreska pseudotaktowa	!	!LO:TX:t=P:problem:kreska pseudotaktowa	!	!	!
.	.	4F/	.	4A\	.	.	.
=2	=2	=2	=2	=2	=2	=2	=2
*	*	*2\right	*	*	*	*	*
!	!	!	!	!	!	!LO:TX:t=P:problem:kreska pseudotaktowa	!
2.C/	Tol-	2c\	.	2G/	.	1e\	-tas
.	.	4c\	-li-	4G/	-li-	.	.
!LO:TX:t=P:problem:kreska pseudotaktowa	!	!LO:TX:t=P:problem:kreska pseudotaktowa	!	!LO:TX:t=P:problem:kreska pseudotaktowa	!	!	!
4D/	.	4c\	-te	4G/	-te	.	.
!	!	!LO:TX:t=P:problem:kreska pseudotaktowa	!	!LO:TX:t=P:problem:kreska pseudotaktowa	!	!LO:TX:t=P:problem:kreska pseudotaktowa	!
4E\	.	1c\	por-	1G/	por-	1r	.
4D\	.	.	.	.	.	.	.
4E\	.	.	.	.	.	.	.
!LO:TX:t=P:problem:kreska pseudotaktowa	!	!	!	!	!	!	!
4C/	.	.	.	.	.	.	.
=3	=3	=3	=3	=3	=3	=3	=3
*2\right	*	*	*	*	*	*	*
!	!	!LO:TX:t=P:problem:kreska pseudotaktowa	!	!	!	!	!
2F\	.	1c\	-tas	2A/	-tas	2.c/	Tol-
*	*	*	*	*2\right	*	*	*
4F\	-li-	.	.	2.c\	Prin-	.	.
!LO:TX:t=P:problem:kreska pseudotaktowa	!	!	!	!	!	!LO:TX:t=P:problem:kreska pseudotaktowa	!
4F\	-te	.	.	.	.	4d\	.
!	!	!LO:TX:t=P:problem:kreska pseudotaktowa	!	!	!	!	!
2E\	por-	1r	.	.	.	4e\	.
.	.	.	.	4c\	-ci-	4d\	.
!LO:TX:t=P:problem:kreska pseudotaktowa	!	!	!	!LO:TX:t=P:problem:kreska pseudotaktowa	!	!	!
2E\	-tas.	.	.	2G/	-pes	4e\	.
!	!	!	!	!	!	!LO:TX:t=P:problem:kreska pseudotaktowa	!
.	.	.	.	.	.	4c\	.
=4	=4	=4	=4	=4	=4	=4	=4
2.F\	Prin-	2r	.	2.A/	ve-	2f\	.
.	.	2.c\	Prin-	.	.	4f\	-li-
!	!	!	!	!LO:TX:t=P:problem:kreska pseudotaktowa	!	!	!
!LO:TX:t=P:problem:kreska pseudotaktowa	!	!	!	!LO:SIC:v:t=custos c	!	!LO:TX:t=P:problem:kreska pseudotaktowa	!
4F\	-ci-	.	.	4B-\	.	4f\	-te
!	!	!	!	!LO:LB:g=original	!	!	!
2C/	-pes	.	.	4c\	.	4e\	por-
.	.	4c\	-ci-	4e\	.	4e\	-tas
!	!	!LO:TX:t=P:problem:kreska pseudotaktowa	!	!	!	!	!
1D\	ve-	2A/	-pes	4d\	.	2.f\	Prin-
!	!	!	!	!LO:TX:t=P:problem:kreska pseudotaktowa	!	!	!
.	.	.	.	4c\	.	.	.
=5	=5	=5	=5	=5	=5	=5	=5
.	.	2Bn\	ve-	4Bn\	.	.	.
.	.	.	.	4d\	.	4f\	-ci-
!	!	!	!	!	!	!LO:TX:t=P:problem:kreska pseudotaktowa	!
4E\	.	1c\	.	4c\	.	2e\	-pes
!LO:TX:t=P:problem:kreska pseudotaktowa	!	!	!	!LO:TX:t=P:problem:kreska pseudotaktowa	!	!	!
4F\	.	.	.	4A\	.	.	.
!	!	!	!	!	!	!LO:LB:g=original	!
!	!	!	!	!	!	!LO:TX:t=P:problem:kreska pseudotaktowa	!
1G\	.	.	.	4d\	.	1d\	ves-
.	.	.	.	4G/	.	.	.
!	!	!LO:TX:t=P:problem:kreska pseudotaktowa	!	!LO:TX:t=P:problem:kreska pseudotaktowa	!	!	!
.	.	2Bn\	.	2G/	.	.	.
!	!	!LO:LB:g=original	!	!	!	!	!
=6	=6	=6	=6	=6	=6	=6	=6
!LO:TX:t=P:problem:kreska pseudotaktowa	!	!LO:TX:t=P:problem:kreska pseudotaktowa	!	!	!	!	!
1C/	-stras	0c\	-stras	2G/	-stras	2e,\	-tras,
!	!	!	!	!LO:TX:t=P:problem:kreska pseudotaktowa	!	!LO:TX:t=P:problem:kreska pseudotaktowa	!
.	.	.	.	1r	.	2c\	et
!LO:LB:g=original	!	!	!	!	!	!	!
00r	.	.	.	.	.	(4c\	e-
.	.	.	.	.	.	4d\)	.
.	.	.	.	2r	.	(4e\	-le-
!	!	!	!	!	!	!LO:TX:t=P:problem:kreska pseudotaktowa	!
.	.	.	.	.	.	4f\)	.
=7	=7	=7	=7	=7	=7	=7	=7
.	.	00r	.	2r	.	2.g\	-va-
!	!	!	!	!LO:TX:t=P:problem:kreska pseudotaktowa	!	!	!
.	.	.	.	2G/	et	.	.
!	!	!	!	!	!	!LO:TX:t=P:problem:kreska pseudotaktowa	!
.	.	.	.	.	.	4g\	-mi-
!	!	!	!	!	!	!LO:TX:t=P:problem:kreska pseudotaktowa	!
.	.	.	.	(4G/	e-	1g\	-ni
.	.	.	.	4A/)	.	.	.
.	.	.	.	(4Bn\	-le-	.	.
!	!	!	!	!LO:TX:t=P:problem:kreska pseudotaktowa	!	!	!
.	.	.	.	4c\)	.	.	.
=8	=8	=8	=8	=8	=8	=8	=8
!	!	!LO:TX:t=P:problem:kreska pseudotaktowa	!	!	!	!	!
.	.	.	.	2.d\	-va-	1f\	por-
!	!	!	!	!LO:TX:t=P:problem:kreska pseudotaktowa	!	!	!
.	.	.	.	4d\	-mi-	.	.
!LO:TX:t=P:problem:kreska pseudotaktowa	!	!	!	!	!	!	!
2r	.	.	.	2c\	-ni	2e\	-tae
!LO:TX:t=P:problem:kreska pseudotaktowa	!	!	!	!	!	!	!
2C/	et	.	.	2.c\	por-	4c\	ae-
!	!	!	!	!	!	!LO:TX:t=P:problem:kreska pseudotaktowa	!
.	.	.	.	.	.	4d\	-ter-
=9	=9	=9	=9	=9	=9	=9	=9
(4C/	e-	2r	.	.	.	4e\	-na-
!	!	!	!	!LO:TX:t=P:problem:kreska pseudotaktowa	!	!	!
4D/)	.	.	.	4c\	-tas	4f\	.
!	!	!	!	!LO:LB:g=original	!	!	!
!	!	!LO:TX:t=P:problem:kreska pseudotaktowa	!	!	!	!	!
(4E\	-le-	2G/	et	4G/	ae-	4g\	.
!LO:TX:t=P:problem:kreska pseudotaktowa	!	!	!	!LO:TX:t=P:problem:kreska pseudotaktowa	!	!	!
4F\)	.	.	.	4A/	-ter-	8f\L	.
!	!	!	!	!	!	!LO:TX:t=P:problem:kreska pseudotaktowa	!
.	.	.	.	.	.	8e\J	.
2G\	-va-	(4G/	e-	4Bn\	-na-	2.d\	.
.	.	4A/)	.	4c\	.	.	.
4G\	-mi-	(4Bn\	-le-	4d\	.	.	.
!LO:TX:t=P:problem:kreska pseudotaktowa	!	!LO:TX:t=P:problem:kreska pseudotaktowa	!	!	!	!LO:TX:t=P:problem:kreska pseudotaktowa	!
4G\	-ni	4c\)	.	8c\L	.	4e\	.
!	!	!	!	!LO:TX:t=P:problem:kreska pseudotaktowa	!	!	!
.	.	.	.	8B\J	.	.	.
=10	=10	=10	=10	=10	=10	=10	=10
1F\	por-	2d\	-va-	2.A/	.	2f\	.
.	.	4d\	-mi-	.	.	2d\	.
!	!	!LO:TX:t=P:problem:kreska pseudotaktowa	!	!LO:TX:t=P:problem:kreska pseudotaktowa	!	!	!
.	.	4d\	-ni	4B-\	.	.	.
2E,\	-tae	2c\	por-	4c\	.	2.e\	.
.	.	.	.	4G\	.	.	.
!	!	!LO:TX:t=P:problem:kreska pseudotaktowa	!	!	!	!	!
*	*	*	*	*lig	*	*	*
4C/	ae-	2c\	-tae	1c\	.	.	.
!LO:TX:t=P:problem:kreska pseudotaktowa	!	!	!	!	!	!LO:TX:t=P:problem:kreska pseudotaktowa	!
4D/	-ter-	.	.	.	.	4f\	.
!	!	!	!	!	!	!LO:LB:g=original	!
=11	=11	=11	=11	=11	=11	=11	=11
4E\	-na-	4G/	ae-	.	.	4g\	.
4F\	.	4A/	-ter-	.	.	8f\L	.
.	.	.	.	.	.	8e\J	.
4G\	.	4Bn\	-na-	1Bn\	.	4d\	.
!	!	!LO:TX:t=P:problem:kreska pseudotaktowa	!	!	!	!	!
8F\L	.	4c\	.	.	.	4e\	.
!LO:TX:t=P:problem:kreska pseudotaktowa	!	!	!	!	!	!	!
8E\J	.	.	.	.	.	.	.
4D\	.	4d\	.	.	.	4f\	.
4E\	.	8c\L	.	.	.	8e\L	.
.	.	8B\J	.	.	.	8d\J	.
*	*	*	*	*Xlig	*	*	*
!	!	!LO:TX:t=P:problem:kreska pseudotaktowa	!	!LO:TX:t=P:problem:kreska pseudotaktowa	!	!LO:TX:t=P:problem:kreska pseudotaktowa	!
1F\	.	2A/	.	2A/	.	2c/	.
=12	=12	=12	=12	=12	=12	=12	=12
*	*	*	*	*lig	*	*	*
.	.	2Bn\	.	1G/	.	2d\	.
2E\	.	1c\	.	.	.	2e\	.
!LO:TX:t=P:problem:kreska pseudotaktowa	!	!	!	!	!	!LO:TX:t=P:problem:kreska pseudotaktowa	!
1D\	.	.	.	1d\	.	1f\	.
.	.	2Bn\	.	.	.	.	.
*	*	*	*	*Xlig	*	*	*
=13	=13	=13	=13	=13	=13	=13	=13
2C,/	-les	0c\	-les	2G,/	-les,	2e,\	-les
!LO:LB:g=original	!	!	!	!	!	!	!
!LO:TX:t=P:problem:kreska pseudotaktowa	!	!	!	!LO:TX:t=P:problem:kreska pseudotaktowa	!	!LO:TX:t=P:problem:kreska pseudotaktowa	!
2F\	et	.	.	2A/	et	2f\	et
2E\	in-	.	.	2c\	in-	2g\	in-
!LO:TX:t=P:problem:kreska pseudotaktowa	!	!	!	!LO:TX:t=P:problem:kreska pseudotaktowa	!	!LO:TX:t=P:problem:kreska pseudotaktowa	!
2C/	-tro-	.	.	2c\	-tro-	2e\	-tro-
!	!	!LO:LB:g=original	!	!	!	!	!
=14	=14	=14	=14	=14	=14	=14	=14
2F\	-i-	1r	.	2A/	-i-	2.f\	-i-
!LO:TX:t=P:problem:kreska pseudotaktowa	!	!	!	!LO:TX:t=P:problem:kreska pseudotaktowa	!	!	!
2D/	-bit	.	.	2d\	-bit	.	.
.	.	.	.	.	.	4f\	-bit
!LO:TX:t=P:problem:kreska pseudotaktowa	!	!LO:TX:t=P:problem:kreska pseudotaktowa	!	!	!	!	!
1C/	Rex	1c\	et	2G/	Rex	2e,\	Rex
!	!	!	!	!LO:LB:g=original	!	!	!
!	!	!	!	!LO:TX:t=P:problem:kreska pseudotaktowa	!	!LO:TX:t=P:problem:kreska pseudotaktowa	!
.	.	.	.	2e\	et	2g\	et
=15	=15	=15	=15	=15	=15	=15	=15
0r	.	2A/	in-	2f\	in-	2a\	in-
!	!	!LO:TX:t=P:problem:kreska pseudotaktowa	!	!LO:TX:t=P:problem:kreska pseudotaktowa	!	!LO:TX:t=P:problem:kreska pseudotaktowa	!
.	.	2F/	-tro-	2f\	-tro-	2a\	-tro-
.	.	2B-X\	-i-	2d\	-i-	2f\	-i-
!	!	!LO:TX:t=P:problem:kreska pseudotaktowa	!	!LO:TX:t=P:problem:kreska pseudotaktowa	!	!LO:TX:t=P:problem:kreska pseudotaktowa	!
.	.	2G/	-bit	2e\	-bit	2g\	-bit
=16	=16	=16	=16	=16	=16	=16	=16
!	!	!	!	!LO:TX:t=P:problem:kreska pseudotaktowa	!	!	!
4FF/	glo-	2F,/	Rex,	1f\	Rex	2a\	Rex
4GG/	.	.	.	.	.	.	.
!	!	!	!	!	!	!LO:LB:g=original	!
4AA/	.	1c\	in-	.	.	4c\	glo-
!LO:TX:t=P:problem:kreska pseudotaktowa	!	!	!	!	!	!LO:TX:t=P:problem:kreska pseudotaktowa	!
4BB-/	.	.	.	.	.	4d\	.
4C/	.	.	.	1r	.	4e\	.
4D/	.	.	.	.	.	4f\	.
!	!	!LO:TX:t=P:problem:kreska pseudotaktowa	!	!	!	!	!
4E\	.	2c\	-tro-	.	.	4g\	.
!LO:TX:t=P:problem:kreska pseudotaktowa	!	!	!	!	!	!LO:TX:t=P:problem:kreska pseudotaktowa	!
4C/	.	.	.	.	.	4e\	.
=17	=17	=17	=17	=17	=17	=17	=17
4D\	.	2B-\	-i-	4F/	glo-	2f\	.
4E\	.	.	.	4G/	.	.	.
!	!	!LO:TX:t=P:problem:kreska pseudotaktowa	!	!	!	!LO:TX:t=P:problem:kreska pseudotaktowa	!
1F\	.	2A/	-bit	4A/	.	2c\	.
.	.	.	.	4F/	.	.	.
!	!	!LO:TX:t=P:problem:kreska pseudotaktowa	!	!	!	!	!
.	.	1G/	Rex	2B-X\	.	2d\	.
!LO:TX:t=P:problem:kreska pseudotaktowa	!	!	!	!LO:TX:t=P:problem:kreska pseudotaktowa	!	!LO:TX:t=P:problem:kreska pseudotaktowa	!
2E\	.	.	.	2G/	.	2e\	.
=18	=18	=18	=18	=18	=18	=18	=18
2D/	.	4F/	glo-	4A/	.	2.f\	.
.	.	4G/	.	4B-\	.	.	.
4AA/	.	4A/	.	4c\	.	.	.
!LO:TX:t=P:problem:kreska pseudotaktowa	!	!LO:TX:t=P:problem:kreska pseudotaktowa	!	!	!	!LO:TX:t=P:problem:kreska pseudotaktowa	!
4BB-/	.	4F/	.	8B-\L	.	4f\	-ri-
!	!	!	!	!LO:TX:t=P:problem:kreska pseudotaktowa	!	!	!
.	.	.	.	8A\J	.	.	.
1.C/	.	4c\	.	2G/	.	2e\	-ae
.	.	4G/	.	.	.	.	.
.	.	2.c\	.	4A\	.	1f\	glo-
!	!	!	!	!LO:TX:t=P:problem:kreska pseudotaktowa	!	!	!
.	.	.	.	4B-\	.	.	.
=19	=19	=19	=19	=19	=19	=19-	=19
.	.	.	.	2.c\	.	.	.
.	.	4A/	.	.	.	.	.
2C/	-ri-	4G/	.	.	.	2e\	-ri-
.	.	4G/	-ri-	4c\	-ri-	.	.
0.FF/;	-ae.	0.A\;	-ae.	0.c\;	-ae.	0.f\;<	-ae.
!LO:LB:g=original	!	!LO:LB:g=original	!	!	!	!	!
=20	=20	=20	=20	=20	=20	=20	=20
*M3/2	*	*M3/2	*	*M3/2	*	*M3/2	*
!LO:SIC:v:t=w taktach na 3 nie uwzględniałam kresek pseudotaktowych	!	!LO:SIC:v:t=w taktach na 3 nie uwzględniałam kresek pseudotaktowych	!	!LO:SIC:v:t=w taktach na 3 nie uwzględniałam kresek pseudotaktowych	!	!LO:SIC:v:t=w taktach na 3 nie uwzględniałam kresek pseudotaktowych	!
2r	.	2r	.	2r	.	2r	.
2D/	Quis	2A/	Quis	2d\	Quis	2f\	Quis
2D/	as-	2A/	as-	2d\	as-	2f\	as-
=22	=22	=22	=22	=22	=22	=22	=22
2A\	-cen-	2A/	-cen-	2d\	-cen-	2e\	-cen-
2A\	-det	2A/	-det	2c#X\	-det	2e\	-det
2A\	in	2c#X\	in	2e\	in	2a\	in
=23	=23	=23	=23	=23	=23	=23	=23
1d\	mon-	4d\	mon-	1f\	mon-	1a\	mon-
.	.	4e\	.	.	.	.	.
.	.	2f\	.	.	.	.	.
!LO:TX:a:t=P:problem: brak kreski taktowej	!	!	!	!	!	!	!
1c\	.	4c\	.	1e\	-tem	1a\	-tem
.	.	4d\	.	.	.	.	.
=24-	=24	=24	=24	=24	=24	=24-	=24
.	.	2e\	.	.	.	.	.
!	!	!	!	!	!	!LO:LB:g=original	!
2.B-X\	.	4f\	.	2.d\	Do-	2a\	Do-
.	.	4f\	-tem	.	.	.	.
.	.	4g\	Do-	.	.	2g\	-mi-
4B-\	-tem	4g\	-mi-	4d\	-mi-	.	.
=25	=25	=25	=25	=25	=25	=25	=25
2A,\	quis	1.e\	-ni	2c#X,\	-ni,	2a\	-ni
2A\	aut	.	.	2A\	aut	2e\	aut
2A\	quis	.	.	2d\	quis	2f\	quis
=26	=26	=26	=26	=26	=26	=26	=26
!LO:TX:a:t=P:problem: brak kreski taktowej	!	!	!	!	!	!	!
[<1.A\t	sta-	2r	.	2c#X\	sta-	2e\	sta-
.	.	2A/	aut	2c#\	-bit	2e\	-bit
.	.	2d\	quis	2d\	quis	2r	.
!	!	!LO:LB:g=original	!	!	!	!	!
=27	=27	=27	=27	=27	=27	=27	=27
1.A\]	.	2c#X\	sta-	2e\	sta-	2r	.
.	.	2c#\	-bit	2e\	-bit	2A/	aut
.	.	2d\	quis	2f\	quis	2d\	quis
!	!	!	!	!LO:LB:g=original	!	!	!
=28	=28	=28	=28	=28	=28	=28	=28
2A\	.	2e\	sta-	2e\	sta-	2c#X/	sta-
2A\	-bit	2A/	-bit	2c#X\	-bit	2c#/	-bit
2F\	in	2A/	in	2d\	in	2a\	in
=29	=29	=29	=29	=29	=29	=29	=29
2.G\	lo-	2.Bn\	lo-	2.e\	lo-	2.g\	lo-
4A\	-co	4c\	-co	4e\	-co	4g\	-co
2B-\	San-	2d\	San-	2d\	San-	y2.g\	San
!LO:LB:g=original	!	!	!	!	!	!	!
=30	=30	=30	=30	=30	=30	=30	=30
!	!	!	!	!	!	!LO:N:xstem:cue	!
2G\	-cto	2B-X\	-cto	2d\	-cto	.	.
.	.	.	.	.	.	4f\	cto
2A\	e-	1A\	e-	(2d\	e-	2f\	e-
2AA/	.	.	.	2c#X\)	.	2e\	.
=31	=31	=31	=31	=31	=31	=31	=31
*M2/1	*	*M2/1	*	*M2/1	*	*M2/1	*
*met(C|)	*	*met(C|)	*	*met(C|)	*	*	*
!	!	!LO:TX:t=P:problem:kreska pseudotaktowa	!	!	!	!	!
2D/	-ius.	1A\	-ius	2d\	-jus.	1f\	-ius
!LO:TX:t=P:problem:kreska pseudotaktowa:między nutą a kropką	!	!	!	!LO:TX:t=P:problem:kreska pseudotaktowa	!	!	!
[<2.F\	In-	.	.	2r	.	.	.
!	!	!	!	!	!	!LO:LB:g=original	!
!	!	!	!	!	!	!LO:SIC:v:o:t=fragment niewidoczny	!
.	.	2r	.	0r	.	1ryy	.
4F\]	-no-	.	.	.	.	.	.
!LO:TX:t=P:problem:kreska pseudotaktowa	!	!	!	!	!	!	!
2E\	-cens	2.c\	In-	.	.	.	.
=32	=32	=32	=32	=32	=32	=32	=32
2F\	ma-	.	.	.	.	2ryy	.
.	.	4c\	-no-	.	.	.	.
!LO:TX:t=P:problem:kreska pseudotaktowa	!	!LO:TX:t=P:problem:kreska pseudotaktowa	!	!	!	!	!
2D/	.	2Bn\	-cens	.	.	2.f\	In-
4C/	.	2.c\	ma-	2r	.	.	.
4D/	.	.	.	.	.	4f\	-cens
!	!	!	!	!	!	!LO:TX:t=P:problem:kreska pseudotaktowa	!
4E\	.	.	.	2.c\	In-	2e\	ma-
!LO:TX:t=P:problem:kreska pseudotaktowa	!	!LO:TX:t=P:problem:kreska pseudotaktowa	!	!	!	!	!
4C/	.	4B\	.	.	.	.	.
=33	=33	=33	=33	=33-	=33	=33	=33
2D/	.	2A/	.	.	.	2f\	.
.	.	.	.	4c\	-no-	.	.
!	!	!LO:LB:g=original	!	!	!	!	!
!	!	!LO:TX:t=P:problem:kreska pseudotaktowa	!	!LO:TX:t=P:problem:kreska pseudotaktowa	!	!LO:TX:t=P:problem:kreska pseudotaktowa	!
2G\	.	2Bn\	.	2Bn\	-cens	2d\	.
2C/	.	2G/	.	2c\	ma-	2e\	.
!	!	!LO:TX:t=P:problem:kreska pseudotaktowa	!	!LO:TX:t=P:problem:kreska pseudotaktowa	!	!LO:TX:t=P:problem:kreska pseudotaktowa	!
1F\	.	2A/	.	2A/	.	2c\	.
=34	=34	=34	=34	=34	=34	=34	=34
.	.	2.G/	.	2Bn\	.	2d\	.
!	!	!	!	!LO:PB:g=original	!	!	!
!LO:TX:t=P:problem:kreska pseudotaktowa	!	!	!	!	!	!	!
2E\	.	.	.	1c\	.	2e\	.
!	!	!LO:TX:t=P:problem:kreska pseudotaktowa	!	!	!	!	!
.	.	4G/	-ni-	.	.	.	.
2.D/	.	2A/	-bus	.	.	2.f\	.
!	!	!	!	!LO:TX:t=P:problem:kreska pseudotaktowa	!	!	!
.	.	4d\	ma-	2Bn\	.	.	.
!LO:TX:t=P:problem:kreska pseudotaktowa	!	!LO:TX:t=P:problem:kreska pseudotaktowa	!	!	!	!LO:TX:t=P:problem:kreska pseudotaktowa	!
4D/	-ni-	4d\	-ni-	.	.	4f\	-ni-
=35	=35	=35	=35	=35	=35	=35	=35
2C/	-bus	2G/	-bus	1c\	-bus	2e\	-bus
!LO:LB:g=original	!	!	!	!	!	!	!
!LO:TX:t=P:problem:kreska pseudotaktowa	!	!LO:TX:t=P:problem:kreska pseudotaktowa	!	!	!	!	!
2F\	et	2A/	et	.	.	2f\	et
!	!	!	!	!	!	!LO:TX:t=P:problem:kreska pseudotaktowa	!
(4BB-/	mun-	1B-X\	mun-	2r	.	1d\	mun-
4C/)	.	.	.	.	.	.	.
!	!	!	!	!LO:TX:t=P:problem:kreska pseudotaktowa	!	!	!
(4D/	.	.	.	2B-X\	et	.	.
!LO:TX:t=P:problem:kreska pseudotaktowa	!	!	!	!	!	!	!
4E\)	-do	.	.	.	.	.	.
=36	=36	=36	=36	=36	=36	=36	=36
1F\	cor-	2A/	-do	4F/	mun-	2c,/	-do
.	.	.	.	4G/	.	.	.
.	.	1c\	cor-	4A/	.	2.f\	cor-
!	!	!	!	!LO:TX:t=P:problem:kreska pseudotaktowa	!	!	!
.	.	.	.	4B-\	.	.	.
2AA/	.	.	.	2c\	-do	.	.
.	.	.	.	.	.	4c\	.
1BB-/	.	4B-\	.	1d\	cor-	1f\	.
!	!	!LO:TX:t=P:problem:kreska pseudotaktowa	!	!	!	!	!
.	.	4A\	.	.	.	.	.
=37	=37	=37	=37	=37	=37	=37	=37
.	.	1G/	.	.	.	.	.
!LO:TX:t=P:problem:kreska pseudotaktowa	!	!	!	!LO:TX:t=P:problem:kreska pseudotaktowa	!	!LO:TX:t=P:problem:kreska pseudotaktowa	!
2C/	.	.	.	2c\	.	2e\	.
2FF/	-de	2A/	-de	2c\	-de	2f\	-de
!	!	!	!	!	!	!LO:PB:g=original	!
!	!	!LO:TX:t=P:problem:kreska pseudotaktowa	!	!LO:TX:t=P:problem:kreska pseudotaktowa	!	!	!
1BB-/	mun-	2F/	mun-	2B-\	mun-	2d\	mun-
=38	=38	=38	=38	=38	=38	=38	=38
!	!	!	!	!	!	!LO:TX:t=P:problem:kreska pseudotaktowa	!
.	.	(2G/	-do	1c\	-do	(2e-X\	.
!LO:TX:t=P:problem:kreska pseudotaktowa	!	!LO:TX:t=P:problem:kreska pseudotaktowa	!	!	!	!	!
2AA/	-do	2A/)	.	.	.	2f\)	do
!	!	!LO:LB:g=original	!	!	!	!	!
1BB-/	cor-	2.F/	cor-	1d\	cor-	2.d\	cor-
.	.	4G/	.	.	.	4eny\	.
=39	=39	=39	=39	=39	=39	=39	=39
0FF/;	-de.	0A\;	-de.	0c\	-de	0f\;	-de.
=40||	=40||	=40||	=40||	=40||	=40||	=40||	=40||
*M3/4	*	*M3/4	*	*M3/4	*	*M3/4	*
4BB-/	al-	4B-\	al-	4d\	al-	4f\	al-
4D/	-le-	4B-\	-le-	4B-\	-le-	4d\	-le-
4BB-/	-lu-	4B-\	-lu-	4d\	-lu-	4f\	-lu-
!	!	!	!	!LO:LB:g=original	!	!	!
=41	=41	=41	=41	=41	=41	=41	=41
4.E-X\	-ja	[2.B-\	-ja	2.e-X\	-ia	4.g\	-ja
8D\L	.	.	.	.	.	8f\L	.
8E-\	.	.	.	.	.	8g\	.
8F\J	.	.	.	.	.	8a\J	.
=42	=42	=42	=42	=42	=42	=42	=42
4.G\	.	2.B-\]	.	2d\	al-	4.b-\	.
8F\	.	.	.	.	.	8a\	.
4E-X\	.	.	.	4e-X\	.	4g\	.
!LO:LB:g=original	!	!	!	!	!	!	!
=43	=43	=43	=43	=43	=43	=43	=43
4D\	al-	4B-\	al-	4f\	.	4f\	al-
4E-X\	-le-	4B-\	-le-	4e-X\	-le-	4g\	-le-
!LO:TX:a:t=P:problem: brak kreski taktowej	!	!	!	!	!	!	!
4F\	-lu-	4A\	-lu-	4c\	-lu-	4f\	-lu-
=44	=44	=44	=44	=44	=44	=44	=44
2.BB-/	-ja	2.B-\	-ja	2.d\	-ja	2.f\	-ja
!	!	!	!	!	!	!LO:LB:g=original	!
=45	=45	=45	=45	=45	=45	=45	=45
0.r	.	4F/	al-	4c\	al-	4f\	al-
.	.	4A/	-le-	4A\	-le-	4f\	-le-
.	.	4F/	-lu-	4c\	-lu-	4f\	-lu-
=46	=46	=46	=46	=46	=46	=46	=46
.	.	4.B-\	-ja	4.d\	-ja	(2.f\	-ja
.	.	8A\L	.	8c\L	.	.	.
.	.	8B-\	.	8d\	.	.	.
!	!	!	!	!LO:TX:a:t=P:problem:♭ above	!	!	!
.	.	8c\J	.	8e-X\J	.	.	.
=47	=47	=47	=47	=47	=47	=47	=47
.	.	4.d\	.	4.f\	.	2.f\)	.
.	.	8c\	.	8e-X\	.	.	.
.	.	4B-\	.	4d\	.	.	.
!	!	!LO:LB:g=original	!	!	!	!	!
=48	=48	=48	=48	=48	=48	=48	=48
.	.	4A\	al-	4c\	al-	4f\	al-
.	.	4B-\	-le-	4d\	-le-	4f\	-le-
.	.	4c\	-lu-	4c\	-lu-	4e\	-lu-
=49	=49	=49	=49	=49	=49	=49	=49
4F\	A-	2F/	-ja	2.c\	-ja	2.f\	-ja.
4F\	-ve	.	.	.	.	.	.
!LO:TX:a:t=P:problem: brak kreski taktowej	!	!	!	!	!	!	!
4F\	Ma-	4r	.	.	.	.	.
=50-	=50	=50	=50	=50	=50	=50	=50
2En\	-ri-	4c\	A-	1.r	.	1.r	.
.	.	4c\	-ve	.	.	.	.
4C/	-a	4c\	Ma-	.	.	.	.
=51	=51	=51	=51	=51	=51	=51	=51
4.D/	gra-	2B-\	-ri-	.	.	.	.
8D/	-ti-	.	.	.	.	.	.
4E\	-a	4G/	-a	.	.	.	.
=52	=52	=52	=52	=52	=52	=52	=52
2F\	ple-	4.A/	gra-	2.r	.	4f\	A-
.	.	.	.	.	.	4f\	-ve
.	.	8A/	-ti-	.	.	.	.
4D/	.	4Bn\	-a	.	.	4f\	Ma-
=53	=53	=53	=53	=53	=53	=53	=53
2C/	-na	2c\	ple-	4c\	A-	2en\	-ri-
.	.	.	.	4c\	-ve	.	.
4r	.	4A/	.	4c\	Ma-	4c/	-a
!	!	!	!	!LO:LB:g=original	!	!	!
=54	=54	=54	=54	=54	=54	=54	=54
1.r	.	2.G/	-na	2B-\	-ri-	4.d\	gra-
.	.	.	.	.	.	8d\	-ti-
.	.	.	.	4G/	-a	4e\	-a
=55	=55	=55	=55	=55	=55	=55	=55
.	.	1.r	.	4.A/	gra-	2f\	ple-
.	.	.	.	8A/	-ti-	.	.
.	.	.	.	4Bn\	-a	4d\	.
=56	=56	=56	=56	=56	=56	=56	=56
8C\L	Do-	.	.	2c\	ple-	2e\	-na
8D\	.	.	.	.	.	.	.
8E\	.	.	.	.	.	.	.
8F\	.	.	.	.	.	.	.
8G\	.	.	.	4Bn\	.	4r	.
8F\J	.	.	.	.	.	.	.
!	!	!	!	!	!	!LO:LB:g=original	!
=57	=57	=57	=57	=57	=57	=57	=57
4.E\	.	2.r	.	2c\	-na	8c\L	Do-
.	.	.	.	.	.	8d\	.
.	.	.	.	.	.	8e\	.
8D\	-mi-	.	.	.	.	8f\	.
4C/	-nus	.	.	4r	.	8g\	.
.	.	.	.	.	.	8e\J	.
!LO:LB:g=original	!	!	!	!	!	!	!
=58	=58	=58	=58	=58	=58	=58	=58
4.F\	Do-	4.A/	Do-	8F/L	Do-	4.f\	.
.	.	.	.	8G/	.	.	.
.	.	.	.	8A/	.	.	.
8F\	-mi-	8A/	-mi-	8B-X/	.	8f\	-mi-
4E\	-nus	4G/	-nus	8c/	.	4c/	-nus
.	.	.	.	8B-/J	.	.	.
!	!	!LO:PB:g=original	!	!	!	!	!
=59	=59	=59	=59	=59	=59	=59	=59
2F\	Te-	8F/L	Do-	4.A/	.	4f\	Te-
.	.	8G/	.	.	.	.	.
.	.	8A/	.	.	.	4c/	.
.	.	8B-/	.	8B-\	-mi-	.	.
4AA/	.	8c/	.	4c\	-nus	2.f\	.
.	.	8A/J	.	.	.	.	.
=60	=60	=60	=60	=60	=60	=60-	=60
4BB-/	.	4d\	.	8B-\L	te-	.	.
.	.	.	.	8A\J	.	.	.
2C/	.	8c\	-mi-	2G/	.	.	.
.	.	8c\	-nus	.	.	.	.
.	.	4c\	Te-	.	.	4e\	.
=61-	=61	=61	=61	=61	=61	=61	=61
4F\	-cum	4c,\	-cum,	4A,/	-cum	4f,\	-cum
4r	.	4d\	be-	4f\	be-	4a\	be-
4r	.	4d\	-ne-	4f\	-ne-	4a\	-ne-
=62	=62	=62	=62	=62	=62	=62	=62
2.r	.	2d\	-dic-	2en\	-dic-	2g\	-dic-
.	.	4c#X\	-ta	4e\	-ta	4g\	-ta
=63	=63	=63	=63	=63	=63	=63	=63
4r	.	2d\	Tu	2d\	Tu	2f\	Tu
4r	.	.	.	.	.	.	.
!	!	!	!	!LO:LB:g=original	!	!	!
4F\	in	4A/	in	4d\	in	4f\	in
=64	=64	=64	=64	=64	=64	=64	=64
4.G\	mu-	2G/	mu-	2Bn\	mu-	2d\	mu-
(8F\	.	.	.	.	.	.	.
4E\)	.	4G/	-li-	4c#X\	-li-	4e\	-li-
=65	=65	=65	=65	=65	=65	=65	=65
4D\	-li-	2A/	-e-	2d\	-e-	4f\	-e-
4A\	-e-	.	.	.	.	4.e\	.
4AA/	-ri-	4A/	-ri-	4c#X\	-ri-	.	.
.	.	.	.	.	.	8e\	-ri-
!	!	!	!	!	!	!LO:LB:g=original	!
=66	=66	=66	=66	=66	=66	=66	=66
4D/	-bus	4F/	-bus	4d,\	-bus,	2f\	-bus
4F\	be-	4c\	be-	4A/	be-	.	.
4F\	-ne-	4c\	-ne-	4A/	-ne-	4r	.
!	!	!LO:LB:g=original	!	!	!	!	!
=67	=67	=67	=67	=67	=67	=67	=67
2F\	-dic-	2B-\	-dic-	2G/	-dic-	2.r	.
4E\	-ta	4B-\	-ta	4G/	-ta	.	.
=68	=68	=68	=68	=68	=68	=68	=68
2F\	Te	2A/	Tu	2A/	Tu	4r	.
.	.	.	.	.	.	4r	.
!LO:PB:g=original	!	!	!	!	!	!	!
4A\	in	4A/	in	4c\	in	4f\	in
=69	=69	=69	=69	=69	=69	=69	=69
4.B-\	mu-	4.d\	mu-	2d\	mu-	2f\	mu-
8A\	.	8c\	.	.	.	.	.
4G\	.	4B-\	.	4en\	-li-	4g\	-li-
=70	=70	=70	=70	=70	=70	=70	=70
4F\	li-	4A\	-li-	2f\	-e-	4a\	-e-
4.C/	-e-	4.c\	-e-	.	.	4.g\	.
.	.	.	.	4e\	-ri-	.	.
8C/	-ri-	8c\	-ri-	.	.	8g\	-ri-
=71	=71	=71	=71	=71	=71	=71	=71
*M2/1	*	*M2/1	*	*M2/1	*	*M2/1	*
*met(C|)	*	*met(C|)	*	*met(C|)	*	*met(C|)	*
!	!	!LO:TX:t=P:problem:kreska pseudotaktowa	!	!	!	!LO:TX:t=P:problem:kreska pseudotaktowa	!
2F\	-bus.	1c\	-bus	2f\	-bus	0f\	-bus
!LO:TX:t=P:problem:kreska pseudotaktowa:między nutą a kropką	!	!	!	!	!	!	!
2.F\	al-	.	.	4F/	al-	.	.
!	!	!	!	!LO:TX:t=P:problem:kreska pseudotaktowa	!	!	!
.	.	.	.	4G/	.	.	.
.	.	2.c\	al-	4A/	.	.	.
4G\	.	.	.	4B-\	.	.	.
!	!	!	!	!LO:LB:g=original	!	!	!
!	!	!	!	!LO:TX:t=P:problem:kreska pseudotaktowa:między nutą a kropką	!	!	!
4A\	.	.	.	2.c\	.	.	.
!LO:TX:t=P:problem:kreska pseudotaktowa	!	!LO:TX:t=P:problem:kreska pseudotaktowa	!	!	!	!	!
4B-\	.	4d\	.	.	.	.	.
=72	=72	=72	=72	=72	=72	=72	=72
!	!	!	!	!	!	!LO:TX:t=P:problem:kreska pseudotaktowa	!
2c\	.	4e\	.	.	.	0r	.
.	.	4f\	.	4d\	.	.	.
2.C/	.	4g\	.	4e\	.	.	.
!	!	!LO:TX:t=P:problem:kreska pseudotaktowa	!	!	!	!	!
.	.	4f\	.	4f\	.	.	.
.	.	4e\	.	4g\	.	.	.
4D/	.	4d\	.	4f\	.	.	.
4E\	.	4c\	.	4e\	.	.	.
!LO:TX:t=P:problem:kreska pseudotaktowa	!	!LO:TX:t=P:problem:kreska pseudotaktowa	!	!LO:TX:t=P:problem:kreska pseudotaktowa	!	!	!
4C/	.	4B-\	.	4d\	.	.	.
=73	=73	=73	=73	=73	=73	=73	=73
1F\	.	4A\	.	2c\	.	2r	.
.	.	4B-\	.	.	.	.	.
!	!	!LO:LB:g=original	!	!	!	!	!
!	!	!LO:TX:t=P:problem:kreska pseudotaktowa	!	!	!	!	!
.	.	2c\	-le-	4A\	.	2.c/	al-
!	!	!	!	!LO:TX:t=P:problem:kreska pseudotaktowa	!	!	!
.	.	.	.	4B-\	.	.	.
!LO:TX:t=P:problem:kreska pseudotaktowa	!	!	!	!	!	!	!
*	*	*lig	*	*	*	*	*
1E\	-le-	1G/	-lu-	4c\	-le-	.	.
.	.	.	.	4G/	.	4d\	.
.	.	.	.	1c\	-lu-	4e\	.
!	!	!	!	!	!	!LO:TX:t=P:problem:kreska pseudotaktowa	!
.	.	.	.	.	.	4c/	.
=74	=74	=74	=74	=74	=74	=74	=74
1D\	-lu-	1d\	.	.	.	1f\	.
.	.	.	.	2Bn\	.	.	.
!	!	!	!	!LO:TX:t=P:problem:kreska pseudotaktowa	!	!	!
*	*	*Xlig	*	*	*	*	*
2C/	-ja	2G/	-ja	2c,\	-ja	2e\	.
!LO:TX:t=P:problem:kreska pseudotaktowa	!	!	!	!	!	!LO:TX:t=P:problem:kreska pseudotaktowa	!
2BB-/	al-	1B-\	al-	1G/	al-	2d\	.
!LO:LB:g=original	!	!	!	!	!	!LO:LB:g=original	!
=75	=75	=75	=75	=75	=75	=75	=75
1.C/	-le-	.	.	.	.	2e\	-le-
!	!	!LO:TX:t=P:problem:kreska pseudotaktowa	!	!	!	!	!
.	.	2A/	-le-	4A/	-le-	1f\	.
!	!	!	!	!LO:TX:t=P:problem:kreska pseudotaktowa	!	!	!
.	.	.	.	4B-\	.	.	.
!	!	!LO:TX:t=P:problem:kreska pseudotaktowa	!	!LO:TX:t=P:problem:kreska pseudotaktowa	!	!	!
.	.	1G/	-lu-	1c\	-lu-	.	.
!LO:TX:t=P:problem:kreska pseudotaktowa	!	!	!	!	!	!LO:TX:t=P:problem:kreska pseudotaktowa	!
2C/	-lu-	.	.	.	.	2e\	-lu-
=76	=76	=76	=76	=76	=76	=76	=76
2FF/	-ja	2A,/	-ja	2c,\	-ja	2f\	-ja
1BB-/	al-	1B-\	al-	1d\	al-	1f\	al-
!LO:TX:t=P:problem:kreska pseudotaktowa	!	!LO:TX:t=P:problem:kreska pseudotaktowa	!	!LO:TX:t=P:problem:kreska pseudotaktowa	!	!LO:TX:t=P:problem:kreska pseudotaktowa	!
2AA/	-le-	2F/	-le-	2c\	-le-	2f\	-le-
!	!	!	!	!LO:LB:g=original	!	!	!
=77	=77	=77	=77	=77	=77	=77	=77
1BB-/	-lu-	1B-\	-lu-	1d\	-lu-	1f\	-lu-
!LO:TX:a:t=a Nativitate \nad Purificationem.	!	!LO:TX:a:t=A Nativitate \nad Purificatio\nnem.	!	!LO:TX:a:t=a Nativitate \nad Purificati\nonem.	!	!LO:TX:a:t=A Nativitate \n ad Purificationem	!
0.FF/;	-ja.	0.A\;;	-ja.	0.c\;;	-ja.	0.f\;;	-ja.
==	==	==	==	==	==	==	==
*-	*-	*-	*-	*-	*-	*-	*-
!!!system-decoration: [(s1,s2,s3,s4)]
!!!RDF**kern: > = above
!!!RDF**kern: < = below
!!!EED: Leszek Kubiak
!!!EST: 2021-03-26
!!!ENC: Berenika Jozajtis
!!!END: 2021-03-23
